;FLAVOR:Marlin
;TIME:5047
;Filament used: 2.68243m
;Layer height: 0.2
;MINX:99.8
;MINY:114.8
;MINZ:0.3
;MAXX:150.2
;MAXY:135.2
;MAXZ:62.1
;POSTPROCESSED
;Generated with Cura_SteamEngine 4.11.0
M140 S75
M105
M190 S75
M104 S235
M105
M109 S235
M82 ;absolute extrusion mode
G28
G1 Z15 F300
M107
G90
M82
G92 E0
M107
G92 E0
G28
G29
G92 E0
G92 E0
G1 F1800 E-3.7
;LAYER_COUNT:311
;LAYER:0
M107
G0 F4500 X101.703 Y115.995 Z0.3
;TYPE:SKIRT
G1 F1800 E0
G1 F1050 X102.226 Y115.617 E0.03219
G1 X102.79 Y115.306 E0.06433
G1 X103.389 Y115.068 E0.09648
G1 X104.013 Y114.905 E0.12866
G1 X104.863 Y114.811 E0.17132
G1 X105.33 Y114.8 E0.19463
G1 X144.293 Y114.8 E2.1385
G1 X145.065 Y114.811 E2.17702
G1 X145.708 Y114.86 E2.20919
G1 X146.34 Y114.988 E2.24136
G1 X146.951 Y115.194 E2.27353
G1 X147.532 Y115.473 E2.30569
G1 X148.074 Y115.822 E2.33785
G1 X148.568 Y116.236 E2.37001
G1 X149.008 Y116.708 E2.4022
G1 X149.386 Y117.23 E2.43435
G1 X149.696 Y117.795 E2.4665
G1 X149.934 Y118.394 E2.49866
G1 X150.096 Y119.018 E2.53082
G1 X150.189 Y119.864 E2.57329
G1 X150.2 Y120.33 E2.59654
G1 X150.2 Y129.328 E3.04545
G1 X150.191 Y130.055 E3.08173
G1 X150.143 Y130.698 E3.1139
G1 X150.016 Y131.33 E3.14606
G1 X149.811 Y131.942 E3.17826
G1 X149.533 Y132.523 E3.21039
G1 X149.185 Y133.066 E3.24257
G1 X148.772 Y133.561 E3.27473
G1 X148.301 Y134.001 E3.30689
G1 X147.779 Y134.38 E3.33907
G1 X147.215 Y134.691 E3.3712
G1 X146.616 Y134.93 E3.40338
G1 X145.993 Y135.094 E3.43552
G1 X145.137 Y135.189 E3.47848
G1 X144.67 Y135.2 E3.50179
G1 X105.64 Y135.2 E5.449
G1 X104.942 Y135.191 E5.48383
G1 X104.299 Y135.142 E5.516
G1 X103.667 Y135.015 E5.54816
G1 X103.056 Y134.81 E5.58032
G1 X102.475 Y134.532 E5.61245
G1 X101.932 Y134.183 E5.64465
G1 X101.437 Y133.77 E5.67682
G1 X100.997 Y133.299 E5.70897
G1 X100.618 Y132.777 E5.74116
G1 X100.307 Y132.213 E5.77329
G1 X100.069 Y131.614 E5.80545
G1 X99.906 Y130.99 E5.83762
G1 X99.811 Y130.131 E5.88074
G1 X99.8 Y129.658 E5.90434
G1 X99.8 Y120.604 E6.35605
G1 X99.809 Y119.939 E6.38923
G1 X99.858 Y119.296 E6.4214
G1 X99.986 Y118.664 E6.45357
G1 X100.191 Y118.053 E6.48572
G1 X100.47 Y117.472 E6.51788
G1 X100.819 Y116.929 E6.55008
G1 X101.232 Y116.435 E6.58221
G1 X101.703 Y115.995 E6.61436
G0 F4500 X102.091 Y116.198
G1 F1050 X102.606 Y115.854 E6.64526
G1 X103.161 Y115.579 E6.67616
G1 X103.747 Y115.378 E6.70707
G1 X104.354 Y115.254 E6.73798
G1 X104.874 Y115.211 E6.76401
G1 X105.33 Y115.2 E6.78677
G1 X144.362 Y115.2 E8.73408
G1 X145.06 Y115.21 E8.76891
G1 X145.677 Y115.259 E8.79979
G1 X146.283 Y115.387 E8.83069
G1 X146.868 Y115.592 E8.86162
G1 X147.421 Y115.871 E8.89252
G1 X147.934 Y116.218 E8.92342
G1 X148.398 Y116.628 E8.95431
G1 X148.805 Y117.095 E8.98521
G1 X149.148 Y117.61 E9.01608
G1 X149.423 Y118.166 E9.04703
G1 X149.623 Y118.752 E9.07792
G1 X149.747 Y119.359 E9.10883
G1 X149.789 Y119.875 E9.13466
G1 X149.8 Y120.33 E9.15736
G1 X149.8 Y129.323 E9.60603
G1 X149.791 Y130.05 E9.6423
G1 X149.743 Y130.668 E9.67323
G1 X149.616 Y131.274 E9.70412
G1 X149.413 Y131.859 E9.73501
G1 X149.135 Y132.413 E9.76593
G1 X148.789 Y132.926 E9.7968
G1 X148.379 Y133.391 E9.82773
G1 X147.913 Y133.799 E9.85863
G1 X147.399 Y134.143 E9.88949
G1 X146.844 Y134.419 E9.92041
G1 X146.258 Y134.621 E9.95134
G1 X145.652 Y134.745 E9.9822
G1 X145.126 Y134.789 E10.00853
G1 X144.67 Y134.8 E10.03129
G1 X105.645 Y134.8 E11.97825
G1 X104.947 Y134.791 E12.01308
G1 X104.33 Y134.743 E12.04395
G1 X103.723 Y134.616 E12.07489
G1 X103.139 Y134.412 E12.10576
G1 X102.585 Y134.134 E12.13668
G1 X102.072 Y133.787 E12.16758
G1 X101.607 Y133.378 E12.19847
G1 X101.2 Y132.911 E12.22938
G1 X100.855 Y132.397 E12.26026
G1 X100.58 Y131.842 E12.29117
G1 X100.379 Y131.256 E12.32207
G1 X100.254 Y130.649 E12.35299
G1 X100.211 Y130.121 E12.37942
G1 X100.2 Y129.658 E12.40253
G1 X100.2 Y120.609 E12.85398
G1 X100.209 Y119.944 E12.88716
G1 X100.258 Y119.327 E12.91804
G1 X100.385 Y118.72 E12.94898
G1 X100.59 Y118.136 E12.97986
G1 X100.868 Y117.582 E13.01078
G1 X101.215 Y117.069 E13.04168
G1 X101.625 Y116.605 E13.07258
G1 X102.091 Y116.198 E13.10344
G0 F4500 X102.016 Y116.784
G1 F1050 X102.477 Y116.411 E13.13303
G1 X102.984 Y116.103 E13.16262
G1 X103.527 Y115.866 E13.19218
G1 X104.098 Y115.704 E13.22179
G1 X104.886 Y115.611 E13.26138
G1 X105.33 Y115.6 E13.28354
G1 X144.356 Y115.6 E15.23055
G1 X145.054 Y115.61 E15.26538
G1 X145.645 Y115.659 E15.29497
G1 X146.224 Y115.786 E15.32454
G1 X146.781 Y115.99 E15.35413
G1 X147.305 Y116.268 E15.38373
G1 X147.787 Y116.613 E15.4133
G1 X148.219 Y117.02 E15.44291
G1 X148.591 Y117.481 E15.47246
G1 X148.899 Y117.988 E15.50206
G1 X149.135 Y118.532 E15.53164
G1 X149.296 Y119.102 E15.56119
G1 X149.389 Y119.886 E15.60058
G1 X149.4 Y120.33 E15.62274
G1 X149.4 Y129.318 E16.07115
G1 X149.391 Y130.045 E16.10743
G1 X149.343 Y130.637 E16.13706
G1 X149.217 Y131.216 E16.16662
G1 X149.014 Y131.773 E16.1962
G1 X148.738 Y132.298 E16.22579
G1 X148.394 Y132.781 E16.25537
G1 X147.988 Y133.213 E16.28495
G1 X147.527 Y133.586 E16.31453
G1 X147.021 Y133.895 E16.34411
G1 X146.478 Y134.132 E16.37367
G1 X145.907 Y134.295 E16.4033
G1 X145.114 Y134.389 E16.44314
G1 X144.67 Y134.4 E16.4653
G1 X105.65 Y134.4 E18.41201
G1 X104.952 Y134.391 E18.44684
G1 X104.361 Y134.343 E18.47642
G1 X103.782 Y134.216 E18.50599
G1 X103.225 Y134.013 E18.53557
G1 X102.7 Y133.737 E18.56516
G1 X102.218 Y133.392 E18.59473
G1 X101.786 Y132.986 E18.62431
G1 X101.412 Y132.525 E18.65393
G1 X101.104 Y132.019 E18.68348
G1 X100.867 Y131.475 E18.71308
G1 X100.705 Y130.905 E18.74265
G1 X100.611 Y130.11 E18.78259
G1 X100.6 Y129.658 E18.80514
G1 X100.6 Y120.614 E19.25635
G1 X100.609 Y119.949 E19.28953
G1 X100.657 Y119.358 E19.31911
G1 X100.784 Y118.779 E19.34869
G1 X100.988 Y118.222 E19.37828
G1 X101.265 Y117.698 E19.40785
G1 X101.61 Y117.216 E19.43742
G1 X102.016 Y116.784 E19.467
G0 F4500 X102.406 Y116.972
G1 F1050 X102.86 Y116.635 E19.49521
G1 X103.357 Y116.366 E19.5234
G1 X103.887 Y116.169 E19.55161
G1 X104.44 Y116.05 E19.57983
G1 X105.218 Y116.002 E19.61872
G1 X105.33 Y116 E19.62431
G1 X144.35 Y116 E21.57103
G1 X145.048 Y116.01 E21.60585
G1 X145.612 Y116.058 E21.63409
G1 X146.162 Y116.185 E21.66225
G1 X146.69 Y116.389 E21.69049
G1 X147.184 Y116.664 E21.7187
G1 X147.633 Y117.007 E21.74689
G1 X148.03 Y117.409 E21.77508
G1 X148.367 Y117.864 E21.80333
G1 X148.635 Y118.361 E21.8315
G1 X148.831 Y118.891 E21.85969
G1 X148.951 Y119.444 E21.88792
G1 X148.998 Y120.218 E21.92661
G1 X149 Y120.33 E21.93219
G1 X149 Y129.314 E22.38041
G1 X148.991 Y130.041 E22.41668
G1 X148.944 Y130.604 E22.44487
G1 X148.818 Y131.155 E22.47307
G1 X148.616 Y131.683 E22.50127
G1 X148.341 Y132.177 E22.52948
G1 X147.999 Y132.627 E22.55768
G1 X147.597 Y133.025 E22.5859
G1 X147.144 Y133.362 E22.61407
G1 X146.647 Y133.632 E22.64228
G1 X146.117 Y133.829 E22.67049
G1 X145.565 Y133.95 E22.69869
G1 X144.782 Y133.998 E22.73782
G1 X144.67 Y134 E22.74341
G1 X105.655 Y134 E24.68988
G1 X104.957 Y133.991 E24.72471
G1 X104.394 Y133.943 E24.7529
G1 X103.843 Y133.817 E24.78109
G1 X103.315 Y133.615 E24.8093
G1 X102.821 Y133.34 E24.83751
G1 X102.371 Y132.998 E24.8657
G1 X101.973 Y132.596 E24.89393
G1 X101.637 Y132.142 E24.92211
G1 X101.367 Y131.645 E24.95032
G1 X101.17 Y131.115 E24.97853
G1 X101.05 Y130.563 E25.00672
G1 X101.001 Y129.766 E25.04655
G1 X101 Y120.62 E25.50285
G1 X101.009 Y119.955 E25.53603
G1 X101.057 Y119.392 E25.56422
G1 X101.183 Y118.841 E25.59242
G1 X101.386 Y118.313 E25.62064
G1 X101.662 Y117.819 E25.64887
G1 X102.004 Y117.369 E25.67707
G1 X102.406 Y116.972 E25.70526
G0 F4500 X102.794 Y117.171
G1 F1050 X103.241 Y116.873 E25.73206
G1 X103.726 Y116.645 E25.7588
G1 X104.24 Y116.492 E25.78555
G1 X104.908 Y116.41 E25.81913
G1 X105.33 Y116.4 E25.84019
G1 X144.345 Y116.4 E27.78666
G1 X145.043 Y116.41 E27.82148
G1 X145.577 Y116.458 E27.84823
G1 X146.098 Y116.584 E27.87497
G1 X146.595 Y116.787 E27.90176
G1 X147.056 Y117.061 E27.92851
G1 X147.471 Y117.4 E27.95525
G1 X147.831 Y117.798 E27.98202
G1 X148.128 Y118.244 E28.00875
G1 X148.356 Y118.73 E28.03554
G1 X148.508 Y119.244 E28.06228
G1 X148.59 Y119.909 E28.09571
G1 X148.6 Y120.33 E28.11672
G1 X148.6 Y129.309 E28.56468
G1 X148.591 Y130.036 E28.60095
G1 X148.544 Y130.57 E28.6277
G1 X148.419 Y131.091 E28.65443
G1 X148.217 Y131.588 E28.68119
G1 X147.944 Y132.05 E28.70796
G1 X147.606 Y132.466 E28.73471
G1 X147.209 Y132.827 E28.76148
G1 X146.763 Y133.125 E28.78824
G1 X146.278 Y133.353 E28.81497
G1 X145.764 Y133.507 E28.84174
G1 X145.092 Y133.59 E28.87553
G1 X144.67 Y133.6 E28.89659
G1 X105.661 Y133.6 E30.84275
G1 X104.963 Y133.591 E30.87758
G1 X104.428 Y133.544 E30.90437
G1 X103.907 Y133.418 E30.93111
G1 X103.41 Y133.216 E30.95788
G1 X102.949 Y132.943 E30.98461
G1 X102.533 Y132.604 E31.01138
G1 X102.172 Y132.208 E31.03812
G1 X101.874 Y131.762 E31.06488
G1 X101.646 Y131.276 E31.09166
G1 X101.493 Y130.762 E31.11841
G1 X101.41 Y130.088 E31.15229
G1 X101.4 Y129.658 E31.17375
G1 X101.4 Y120.625 E31.62441
G1 X101.409 Y119.96 E31.65759
G1 X101.457 Y119.426 E31.68434
G1 X101.583 Y118.905 E31.71108
G1 X101.785 Y118.408 E31.73785
G1 X102.058 Y117.947 E31.76458
G1 X102.397 Y117.531 E31.79135
G1 X102.794 Y117.171 E31.81809
G0 F4500 X102.789 Y117.704
G1 F1050 X103.18 Y117.383 E31.84333
G1 X103.617 Y117.128 E31.86857
G1 X104.088 Y116.944 E31.8938
G1 X104.582 Y116.838 E31.919
G1 X105.24 Y116.801 E31.95188
G1 X144.339 Y116.8 E33.90254
G1 X145.037 Y116.81 E33.93737
G1 X145.54 Y116.857 E33.96257
G1 X146.03 Y116.983 E33.98781
G1 X146.494 Y117.185 E34.01306
G1 X146.92 Y117.457 E34.03828
G1 X147.298 Y117.792 E34.06347
G1 X147.618 Y118.183 E34.08868
G1 X147.873 Y118.62 E34.11392
G1 X148.056 Y119.091 E34.13913
G1 X148.163 Y119.585 E34.16435
G1 X148.199 Y120.24 E34.19708
G1 X148.2 Y129.304 E34.64928
G1 X148.191 Y130.031 E34.68556
G1 X148.145 Y130.534 E34.71076
G1 X148.02 Y131.024 E34.73598
G1 X147.819 Y131.488 E34.76121
G1 X147.548 Y131.915 E34.78644
G1 X147.213 Y132.294 E34.81168
G1 X146.823 Y132.615 E34.83688
G1 X146.387 Y132.871 E34.8621
G1 X145.916 Y133.054 E34.88731
G1 X145.422 Y133.162 E34.91254
G1 X144.76 Y133.199 E34.94562
G1 X105.666 Y133.2 E36.89603
G1 X104.968 Y133.191 E36.93085
G1 X104.464 Y133.144 E36.95611
G1 X103.974 Y133.019 E36.98134
G1 X103.51 Y132.818 E37.00657
G1 X103.084 Y132.547 E37.03175
G1 X102.705 Y132.212 E37.05699
G1 X102.384 Y131.821 E37.08223
G1 X102.129 Y131.385 E37.10743
G1 X101.945 Y130.914 E37.13266
G1 X101.838 Y130.42 E37.15787
G1 X101.801 Y129.744 E37.19165
G1 X101.8 Y120.631 E37.6463
G1 X101.809 Y119.966 E37.67948
G1 X101.856 Y119.462 E37.70473
G1 X101.982 Y118.973 E37.72993
G1 X102.183 Y118.509 E37.75515
G1 X102.454 Y118.082 E37.78039
G1 X102.789 Y117.704 E37.80558
G1 F1800 E34.10558
;MESH:220-260PETG_Temp_Tower_.stl
G0 F4500 X105.414 Y119.335
G0 X105.414 Y120.414
G0 X143.818 Y121.182
G0 X144 Y129
;TYPE:WALL-INNER
G1 F1800 E37.80558
G1 F900 X106 Y129 E39.70141
G1 X106 Y121 E40.10053
G1 X144 Y121 E41.99636
G1 X144 Y129 E42.39548
G0 F4500 X144.4 Y129.4
G1 F900 X105.6 Y129.4 E44.33122
G1 X105.6 Y120.6 E44.77026
G1 X144.4 Y120.6 E46.706
G1 X144.4 Y129.4 E47.14503
G0 F4500 X144.8 Y129.8
;TYPE:WALL-OUTER
G1 F900 X105.2 Y129.8 E49.12068
G1 X105.2 Y120.2 E49.59963
G1 X144.8 Y120.2 E51.57528
G1 X144.8 Y129.8 E52.05423
G0 F4500 X144.6 Y129.8
G0 X144.36 Y129.36
G0 X143.89 Y128.61
G0 X143.61 Y128.61
;TYPE:SKIN
G1 F900 X106.39 Y128.61 E53.91114
G1 X106.39 Y121.39 E54.27135
G1 X143.61 Y121.39 E56.12826
G1 X143.61 Y128.61 E56.48847
G0 F4500 X143.89 Y128.61
G0 X143.89 Y121.993
G0 X143.489 Y121.993
G1 F900 X143.005 Y121.509 E56.52262
G0 F4500 X142.44 Y121.509
G1 F900 X143.489 Y122.559 E56.59666
G0 F4500 X143.489 Y123.124
G1 F900 X141.874 Y121.509 E56.71061
G0 F4500 X141.308 Y121.509
G1 F900 X143.489 Y123.69 E56.86449
G0 F4500 X143.489 Y124.256
G1 F900 X140.743 Y121.509 E57.05827
G0 F4500 X140.177 Y121.509
G1 F900 X143.489 Y124.822 E57.29199
G0 F4500 X143.489 Y125.387
G1 F900 X139.611 Y121.509 E57.5656
G0 F4500 X139.046 Y121.509
G1 F900 X143.489 Y125.953 E57.87911
G0 F4500 X143.489 Y126.519
G1 F900 X138.48 Y121.509 E58.23256
G0 F4500 X137.914 Y121.509
G1 F900 X143.489 Y127.084 E58.62591
G0 F4500 X143.489 Y127.65
G1 F900 X137.349 Y121.509 E59.05915
G0 F4500 X136.783 Y121.509
G1 F900 X143.489 Y128.216 E59.53233
G0 F4500 X143.197 Y128.489
G1 F900 X136.217 Y121.509 E60.02481
G0 F4500 X135.652 Y121.509
G1 F900 X142.631 Y128.489 E60.51725
G0 F4500 X142.066 Y128.489
G1 F900 X135.086 Y121.509 E61.00973
G0 F4500 X134.52 Y121.509
G1 F900 X141.5 Y128.489 E61.5022
G0 F4500 X140.934 Y128.489
G1 F900 X133.955 Y121.509 E61.99465
G0 F4500 X133.389 Y121.509
G1 F900 X140.369 Y128.489 E62.48712
G0 F4500 X139.803 Y128.489
G1 F900 X132.823 Y121.509 E62.9796
G0 F4500 X132.257 Y121.509
G1 F900 X139.237 Y128.489 E63.47208
G0 F4500 X138.672 Y128.489
G1 F900 X131.692 Y121.509 E63.96455
G0 F4500 X131.126 Y121.509
G1 F900 X138.106 Y128.489 E64.45703
G0 F4500 X137.54 Y128.489
G1 F900 X130.56 Y121.509 E64.94951
G0 F4500 X129.995 Y121.509
G1 F900 X136.975 Y128.489 E65.44198
G0 F4500 X136.409 Y128.489
G1 F900 X129.429 Y121.509 E65.93446
G0 F4500 X128.863 Y121.509
G1 F900 X135.843 Y128.489 E66.42694
G0 F4500 X135.278 Y128.489
G1 F900 X128.298 Y121.509 E66.91941
G0 F4500 X127.732 Y121.509
G1 F900 X134.712 Y128.489 E67.41189
G0 F4500 X134.146 Y128.489
G1 F900 X127.166 Y121.509 E67.90437
G0 F4500 X126.601 Y121.509
G1 F900 X133.58 Y128.489 E68.39681
G0 F4500 X133.015 Y128.489
G1 F900 X126.035 Y121.509 E68.88928
G0 F4500 X125.469 Y121.509
G1 F900 X132.449 Y128.489 E69.38176
G0 F4500 X131.883 Y128.489
G1 F900 X124.904 Y121.509 E69.8742
G0 F4500 X124.338 Y121.509
G1 F900 X131.318 Y128.489 E70.36668
G0 F4500 X130.752 Y128.489
G1 F900 X123.772 Y121.509 E70.85916
G0 F4500 X123.206 Y121.509
G1 F900 X130.186 Y128.489 E71.35163
G0 F4500 X129.621 Y128.489
G1 F900 X122.641 Y121.509 E71.84411
G0 F4500 X122.075 Y121.509
G1 F900 X129.055 Y128.489 E72.33659
G0 F4500 X128.489 Y128.489
G1 F900 X121.509 Y121.509 E72.82906
G0 F4500 X120.944 Y121.509
G1 F900 X127.924 Y128.489 E73.32154
G0 F4500 X127.358 Y128.489
G1 F900 X120.378 Y121.509 E73.81402
G0 F4500 X119.812 Y121.509
G1 F900 X126.792 Y128.489 E74.30649
G0 F4500 X126.227 Y128.489
G1 F900 X119.247 Y121.509 E74.79897
G0 F4500 X118.681 Y121.509
G1 F900 X125.661 Y128.489 E75.29145
G0 F4500 X125.095 Y128.489
G1 F900 X118.115 Y121.509 E75.78392
G0 F4500 X117.55 Y121.509
G1 F900 X124.529 Y128.489 E76.27636
G0 F4500 X123.964 Y128.489
G1 F900 X116.984 Y121.509 E76.76884
G0 F4500 X116.418 Y121.509
G1 F900 X123.398 Y128.489 E77.26132
G0 F4500 X122.832 Y128.489
G1 F900 X115.853 Y121.509 E77.75376
G0 F4500 X115.287 Y121.509
G1 F900 X122.267 Y128.489 E78.24624
G0 F4500 X121.701 Y128.489
G1 F900 X114.721 Y121.509 E78.73871
G0 F4500 X114.156 Y121.509
G1 F900 X121.135 Y128.489 E79.23115
G0 F4500 X120.57 Y128.489
G1 F900 X113.59 Y121.509 E79.72363
G0 F4500 X113.024 Y121.509
G1 F900 X120.004 Y128.489 E80.21611
G0 F4500 X119.438 Y128.489
G1 F900 X112.458 Y121.509 E80.70858
G0 F4500 X111.893 Y121.509
G1 F900 X118.873 Y128.489 E81.20106
G0 F4500 X118.307 Y128.489
G1 F900 X111.327 Y121.509 E81.69354
G0 F4500 X110.761 Y121.509
G1 F900 X117.741 Y128.489 E82.18601
G0 F4500 X117.176 Y128.489
G1 F900 X110.196 Y121.509 E82.67849
G0 F4500 X109.63 Y121.509
G1 F900 X116.61 Y128.489 E83.17097
G0 F4500 X116.044 Y128.489
G1 F900 X109.064 Y121.509 E83.66344
G0 F4500 X108.499 Y121.509
G1 F900 X115.479 Y128.489 E84.15592
G0 F4500 X114.913 Y128.489
G1 F900 X107.933 Y121.509 E84.6484
G0 F4500 X107.367 Y121.509
G1 F900 X114.347 Y128.489 E85.14087
G0 F4500 X113.781 Y128.489
G1 F900 X106.802 Y121.509 E85.63332
