;FLAVOR:Marlin
;TIME:4723
;Filament used: 2.91751m
;Layer height: 0.2
;MINX:98.474
;MINY:115.494
;MINZ:0.2
;MAXX:152.353
;MAXY:134.506
;MAXZ:59
;POSTPROCESSED
;Generated with Cura_SteamEngine 4.13.1
M140 S70
M105
M190 S70
M104 S235
M105
M109 S235
M82 ;absolute extrusion mode
G28
G1 Z15 F300
M107
G90
M82
G92 E0
M107
G92 E0
G28
G29
G92 E0
G92 E0
G1 F1500 E-7
;LAYER_COUNT:295
;LAYER:0
M107
G0 F2880 X99.901 Y116.829 Z0.2
;TYPE:SKIRT
G1 F1500 E0
G1 F1200 X100.365 Y116.441 E0.02263
G1 X100.876 Y116.118 E0.04525
G1 X101.558 Y115.817 E0.07315
G1 X101.725 Y115.759 E0.07976
G1 X102.308 Y115.599 E0.10238
G1 X103.152 Y115.507 E0.13415
G1 X103.969 Y115.494 E0.16472
G1 X147.041 Y115.495 E1.77638
G1 X147.74 Y115.505 E1.80253
G1 X148.343 Y115.554 E1.82517
G1 X148.934 Y115.682 E1.8478
G1 X149.503 Y115.886 E1.87042
G1 X150.04 Y116.164 E1.89304
G1 X150.536 Y116.51 E1.91567
G1 X150.982 Y116.918 E1.93829
G1 X151.314 Y117.307 E1.95742
G1 X151.394 Y117.412 E1.96236
G1 X151.728 Y117.916 E1.98499
G1 X151.992 Y118.46 E2.00761
G1 X152.183 Y119.034 E2.03025
G1 X152.296 Y119.628 E2.05287
G1 X152.329 Y120.087 E2.07009
G1 X152.353 Y121.26 E2.11399
G1 X152.352 Y129.132 E2.40854
G1 X152.342 Y129.849 E2.43537
G1 X152.293 Y130.452 E2.45801
G1 X152.166 Y131.043 E2.48063
G1 X151.962 Y131.612 E2.50325
G1 X151.684 Y132.149 E2.52587
G1 X151.515 Y132.409 E2.53748
G1 X151.424 Y132.539 E2.54341
G1 X151.045 Y133.01 E2.56604
G1 X150.608 Y133.427 E2.58864
G1 X150.119 Y133.783 E2.61127
G1 X149.587 Y134.072 E2.63392
G1 X149.023 Y134.287 E2.65651
G1 X148.434 Y134.427 E2.67916
G1 X147.756 Y134.489 E2.70464
G1 X146.814 Y134.505 E2.73989
G1 X103.845 Y134.506 E4.34769
G1 X103.148 Y134.496 E4.37377
G1 X102.546 Y134.447 E4.39637
G1 X101.877 Y134.296 E4.42203
G1 X101.733 Y134.252 E4.42767
G1 X101.168 Y134.038 E4.45027
G1 X100.636 Y133.751 E4.47289
G1 X100.146 Y133.396 E4.49553
G1 X99.708 Y132.979 E4.51816
G1 X99.328 Y132.509 E4.54078
G1 X99.013 Y131.992 E4.56343
G1 X98.77 Y131.439 E4.58603
G1 X98.601 Y130.858 E4.60867
G1 X98.496 Y129.97 E4.64213
G1 X98.474 Y128.843 E4.68431
G1 X98.475 Y120.723 E4.98814
G1 X98.485 Y120.069 E5.01261
G1 X98.534 Y119.466 E5.03525
G1 X98.662 Y118.876 E5.05784
G1 X98.867 Y118.307 E5.08047
G1 X99.145 Y117.77 E5.1031
G1 X99.492 Y117.274 E5.12575
G1 X99.901 Y116.829 E5.14836
G0 F2880 X100.34 Y117.037
G1 F1200 X100.797 Y116.69 E5.16983
G1 X101.298 Y116.409 E5.19133
G1 X101.706 Y116.242 E5.20782
G1 X101.873 Y116.184 E5.21444
G1 X102.427 Y116.034 E5.23591
G1 X103.159 Y115.957 E5.26345
G1 X103.969 Y115.944 E5.29377
G1 X147.035 Y115.945 E6.90519
G1 X147.734 Y115.955 E6.93135
G1 X148.306 Y116.004 E6.95283
G1 X148.866 Y116.131 E6.97432
G1 X149.403 Y116.334 E6.9958
G1 X149.906 Y116.61 E7.01727
G1 X150.366 Y116.954 E7.03876
G1 X150.774 Y117.358 E7.06025
G1 X150.956 Y117.58 E7.07099
G1 X151.036 Y117.685 E7.07593
G1 X151.351 Y118.165 E7.09741
G1 X151.597 Y118.684 E7.1189
G1 X151.768 Y119.232 E7.14038
G1 X151.862 Y119.798 E7.16185
G1 X151.879 Y120.097 E7.17305
G1 X151.903 Y121.26 E7.21658
G1 X151.902 Y129.126 E7.51091
G1 X151.892 Y129.843 E7.53774
G1 X151.844 Y130.415 E7.55922
G1 X151.717 Y130.975 E7.5807
G1 X151.513 Y131.511 E7.60216
G1 X151.146 Y132.151 E7.62977
G1 X151.055 Y132.281 E7.6357
G1 X150.694 Y132.727 E7.65717
G1 X150.275 Y133.119 E7.67864
G1 X149.805 Y133.448 E7.70011
G1 X149.293 Y133.71 E7.72163
G1 X148.751 Y133.897 E7.74308
G1 X148.188 Y134.008 E7.76456
G1 X147.748 Y134.039 E7.78106
G1 X146.814 Y134.055 E7.81601
G1 X103.852 Y134.056 E9.42355
G1 X103.155 Y134.046 E9.44963
G1 X102.583 Y133.997 E9.47112
G1 X102.009 Y133.866 E9.49315
G1 X101.865 Y133.822 E9.49878
G1 X101.329 Y133.616 E9.52027
G1 X100.826 Y133.338 E9.54177
G1 X100.367 Y132.993 E9.56326
G1 X99.961 Y132.588 E9.58471
G1 X99.615 Y132.13 E9.60619
G1 X99.335 Y131.628 E9.6277
G1 X99.128 Y131.093 E9.64916
G1 X98.998 Y130.534 E9.67064
G1 X98.946 Y129.961 E9.69217
G1 X98.924 Y128.843 E9.73401
G1 X98.924 Y120.73 E10.03758
G1 X98.934 Y120.076 E10.06205
G1 X98.983 Y119.504 E10.08353
G1 X99.111 Y118.944 E10.10503
G1 X99.315 Y118.408 E10.12649
G1 X99.592 Y117.905 E10.14797
G1 X99.935 Y117.445 E10.16944
G1 X100.34 Y117.037 E10.19095
G0 F2880 X100.378 Y117.625
G1 F1200 X100.777 Y117.259 E10.21121
G1 X101.225 Y116.954 E10.23149
G1 X101.853 Y116.667 E10.25733
G1 X102.02 Y116.609 E10.26394
G1 X102.544 Y116.47 E10.28423
G1 X103.167 Y116.406 E10.30766
G1 X103.969 Y116.394 E10.33767
G1 X147.029 Y116.395 E11.94888
G1 X147.728 Y116.405 E11.97504
G1 X148.267 Y116.453 E11.99528
G1 X148.794 Y116.58 E12.01557
G1 X149.297 Y116.782 E12.03585
G1 X149.764 Y117.056 E12.05611
G1 X150.186 Y117.397 E12.07641
G1 X150.598 Y117.853 E12.0994
G1 X150.678 Y117.958 E12.10434
G1 X150.974 Y118.412 E12.12462
G1 X151.2 Y118.904 E12.14488
G1 X151.351 Y119.425 E12.16518
G1 X151.429 Y120.106 E12.19083
G1 X151.453 Y121.259 E12.23398
G1 X151.452 Y129.119 E12.52808
G1 X151.442 Y129.836 E12.55491
G1 X151.394 Y130.376 E12.5752
G1 X151.268 Y130.903 E12.59547
G1 X151.065 Y131.406 E12.61577
G1 X150.778 Y131.892 E12.63689
G1 X150.687 Y132.022 E12.64283
G1 X150.344 Y132.442 E12.66312
G1 X149.943 Y132.807 E12.68341
G1 X149.494 Y133.109 E12.70365
G1 X149.004 Y133.342 E12.72395
G1 X148.486 Y133.5 E12.74422
G1 X147.74 Y133.589 E12.77233
G1 X146.814 Y133.605 E12.80698
G1 X103.858 Y133.606 E14.4143
G1 X103.161 Y133.596 E14.44038
G1 X102.622 Y133.548 E14.46063
G1 X102.14 Y133.436 E14.47914
G1 X101.996 Y133.392 E14.48478
G1 X101.491 Y133.195 E14.50506
G1 X101.02 Y132.927 E14.52534
G1 X100.594 Y132.593 E14.54559
G1 X100.222 Y132.199 E14.56587
G1 X99.911 Y131.755 E14.58615
G1 X99.669 Y131.27 E14.60643
G1 X99.501 Y130.755 E14.6267
G1 X99.396 Y129.952 E14.657
G1 X99.374 Y128.843 E14.69851
G1 X99.374 Y120.737 E15.00182
G1 X99.384 Y120.083 E15.02629
G1 X99.433 Y119.543 E15.04658
G1 X99.56 Y119.016 E15.06686
G1 X99.763 Y118.514 E15.08712
G1 X100.038 Y118.047 E15.1074
G1 X100.378 Y117.625 E15.12768
G0 F2880 X100.819 Y117.819
G1 F1200 X101.211 Y117.496 E15.14668
G1 X101.648 Y117.239 E15.16565
G1 X102.001 Y117.093 E15.17995
G1 X102.168 Y117.035 E15.18656
G1 X102.659 Y116.906 E15.20556
G1 X103.174 Y116.856 E15.22492
G1 X103.969 Y116.844 E15.25467
G1 X147.022 Y116.845 E16.86561
G1 X147.721 Y116.855 E16.89177
G1 X148.226 Y116.903 E16.91075
G1 X148.718 Y117.028 E16.92974
G1 X149.184 Y117.23 E16.94875
G1 X149.612 Y117.502 E16.96772
G1 X149.993 Y117.838 E16.98673
G1 X150.24 Y118.126 E17.00093
G1 X150.32 Y118.231 E17.00587
G1 X150.595 Y118.657 E17.02484
G1 X150.8 Y119.122 E17.04386
G1 X150.929 Y119.613 E17.06285
G1 X150.979 Y120.116 E17.08177
G1 X151.003 Y121.259 E17.12454
G1 X151.002 Y129.113 E17.41842
G1 X150.992 Y129.83 E17.44525
G1 X150.945 Y130.335 E17.46423
G1 X150.819 Y130.827 E17.48323
G1 X150.618 Y131.293 E17.50222
G1 X150.409 Y131.634 E17.51719
G1 X150.318 Y131.764 E17.52313
G1 X149.995 Y132.156 E17.54213
G1 X149.615 Y132.492 E17.56111
G1 X149.187 Y132.764 E17.58009
G1 X148.721 Y132.966 E17.59909
G1 X148.229 Y133.092 E17.61809
G1 X147.732 Y133.14 E17.63678
G1 X146.814 Y133.155 E17.67113
G1 X103.865 Y133.156 E19.27818
G1 X103.168 Y133.146 E19.30427
G1 X102.662 Y133.098 E19.32328
G1 X102.272 Y133.005 E19.33829
G1 X102.128 Y132.961 E19.34392
G1 X101.655 Y132.775 E19.36294
G1 X101.218 Y132.517 E19.38193
G1 X100.827 Y132.194 E19.4009
G1 X100.491 Y131.814 E19.41988
G1 X100.219 Y131.385 E19.43889
G1 X100.018 Y130.919 E19.45788
G1 X99.892 Y130.427 E19.47688
G1 X99.846 Y129.942 E19.49511
G1 X99.824 Y128.843 E19.53624
G1 X99.824 Y120.744 E19.83929
G1 X99.834 Y120.09 E19.86376
G1 X99.882 Y119.584 E19.88278
G1 X100.008 Y119.093 E19.90175
G1 X100.21 Y118.627 E19.92075
G1 X100.483 Y118.199 E19.93975
G1 X100.819 Y117.819 E19.95873
G1 F1500 E12.95873
;MESH:PETGTempTower
G0 F2880 X103.098 Y119.405
G0 X103.513 Y120.533
G0 X145.546 Y122.302
G0 X145.752 Y127.905
;TYPE:WALL-INNER
G1 F1500 E19.95873
G1 F1200 X105.074 Y127.906 E21.4808
G1 X105.074 Y122.094 E21.69827
G1 X145.753 Y122.095 E23.22039
G1 X145.752 Y127.905 E23.43778
G0 F2880 X146.202 Y128.355
G1 F1200 X104.624 Y128.356 E24.99353
G1 X104.624 Y121.644 E25.24468
G1 X146.203 Y121.645 E26.80047
G1 X146.202 Y128.355 E27.05154
G0 F2880 X146.652 Y128.805
G1 F1200 X104.174 Y128.806 E28.64097
G1 X104.174 Y121.194 E28.92579
G1 X146.653 Y121.195 E30.51526
G1 X146.652 Y128.805 E30.8
G0 F2880 X147.102 Y129.255
G1 F1200 X103.724 Y129.256 E32.42311
G1 X103.724 Y120.744 E32.74161
G1 X147.103 Y120.745 E34.36475
G1 X147.102 Y129.255 E34.68317
G0 F2880 X147.552 Y129.705
;TYPE:WALL-OUTER
G1 F1200 X103.274 Y129.706 E36.33995
G1 X103.274 Y120.294 E36.69212
G1 X147.553 Y120.295 E38.34894
G1 X147.552 Y129.705 E38.70104
G0 F2880 X147.257 Y129.41
G0 X145.617 Y127.466
G0 X145.312 Y127.465
;TYPE:SKIN
G1 F1200 X105.514 Y127.466 E40.19019
G1 X105.514 Y122.534 E40.37473
G1 X145.313 Y122.535 E41.86392
G1 X145.312 Y127.465 E42.04839
G0 F2880 X145.617 Y127.466
G0 X145.617 Y122.859
G0 X145.132 Y122.858
G1 F1200 X144.989 Y122.715 E42.05595
G0 F2880 X144.353 Y122.715
G1 F1200 X145.132 Y123.494 E42.09718
G0 F2880 X145.132 Y124.131
G1 F1200 X143.716 Y122.715 E42.17211
G0 F2880 X143.08 Y122.715
G1 F1200 X145.132 Y124.767 E42.28069
G0 F2880 X145.131 Y125.403
G1 F1200 X142.443 Y122.715 E42.42293
G0 F2880 X141.807 Y122.715
G1 F1200 X145.131 Y126.039 E42.59882
G0 F2880 X145.131 Y126.676
G1 F1200 X141.171 Y122.715 E42.8084
G0 F2880 X140.534 Y122.715
G1 F1200 X145.103 Y127.284 E43.05018
G0 F2880 X144.467 Y127.284
G1 F1200 X139.898 Y122.715 E43.29195
G0 F2880 X139.261 Y122.715
G1 F1200 X143.831 Y127.284 E43.53375
G0 F2880 X143.194 Y127.284
G1 F1200 X138.625 Y122.715 E43.77553
G0 F2880 X137.989 Y122.715
G1 F1200 X142.558 Y127.284 E44.01731
G0 F2880 X141.921 Y127.284
G1 F1200 X137.352 Y122.715 E44.25908
G0 F2880 X136.716 Y122.715
G1 F1200 X141.285 Y127.284 E44.50086
G0 F2880 X140.649 Y127.284
G1 F1200 X136.079 Y122.715 E44.74266
G0 F2880 X135.443 Y122.715
G1 F1200 X140.012 Y127.284 E44.98444
G0 F2880 X139.376 Y127.284
G1 F1200 X134.806 Y122.714 E45.22626
G0 F2880 X134.169 Y122.714
G1 F1200 X138.74 Y127.284 E45.46812
G0 F2880 X138.103 Y127.284
G1 F1200 X133.533 Y122.714 E45.70995
G0 F2880 X132.897 Y122.714
G1 F1200 X137.467 Y127.284 E45.95178
G0 F2880 X136.83 Y127.284
G1 F1200 X132.26 Y122.714 E46.1936
G0 F2880 X131.624 Y122.714
G1 F1200 X136.194 Y127.284 E46.43543
G0 F2880 X135.558 Y127.284
G1 F1200 X130.987 Y122.714 E46.67729
G0 F2880 X130.351 Y122.714
G1 F1200 X134.921 Y127.284 E46.91912
G0 F2880 X134.285 Y127.284
G1 F1200 X129.715 Y122.714 E47.16095
G0 F2880 X129.078 Y122.714
G1 F1200 X133.648 Y127.284 E47.40277
G0 F2880 X133.012 Y127.284
G1 F1200 X128.442 Y122.714 E47.6446
G0 F2880 X127.806 Y122.714
G1 F1200 X132.376 Y127.284 E47.88643
G0 F2880 X131.739 Y127.284
G1 F1200 X127.169 Y122.714 E48.12826
G0 F2880 X126.533 Y122.714
G1 F1200 X131.103 Y127.284 E48.37009
G0 F2880 X130.466 Y127.284
G1 F1200 X125.896 Y122.714 E48.61192
G0 F2880 X125.259 Y122.714
G1 F1200 X129.83 Y127.284 E48.85377
G0 F2880 X129.194 Y127.284
G1 F1200 X124.623 Y122.714 E49.09563
G0 F2880 X123.986 Y122.714
G1 F1200 X128.557 Y127.284 E49.33748
G0 F2880 X127.921 Y127.284
G1 F1200 X123.35 Y122.714 E49.57934
G0 F2880 X122.714 Y122.714
G1 F1200 X127.284 Y127.284 E49.82117
G0 F2880 X126.648 Y127.284
G1 F1200 X122.077 Y122.714 E50.06302
G0 F2880 X121.441 Y122.714
G1 F1200 X126.012 Y127.284 E50.30488
G0 F2880 X125.375 Y127.284
G1 F1200 X120.804 Y122.714 E50.54673
G0 F2880 X120.168 Y122.714
G1 F1200 X124.739 Y127.284 E50.78859
G0 F2880 X124.102 Y127.284
G1 F1200 X119.532 Y122.714 E51.03042
G0 F2880 X118.895 Y122.714
G1 F1200 X123.466 Y127.284 E51.27227
G0 F2880 X122.83 Y127.284
G1 F1200 X118.259 Y122.714 E51.51413
G0 F2880 X117.622 Y122.714
G1 F1200 X122.193 Y127.284 E51.75598
G0 F2880 X121.557 Y127.284
G1 F1200 X116.986 Y122.714 E51.99784
G0 F2880 X116.35 Y122.714
G1 F1200 X120.92 Y127.284 E52.23966
G0 F2880 X120.284 Y127.284
G1 F1200 X115.713 Y122.714 E52.48152
G0 F2880 X115.076 Y122.713
G1 F1200 X119.648 Y127.284 E52.72343
G0 F2880 X119.011 Y127.284
G1 F1200 X114.44 Y122.713 E52.96531
G0 F2880 X113.803 Y122.713
G1 F1200 X118.375 Y127.284 E53.20722
G0 F2880 X117.738 Y127.284
G1 F1200 X113.167 Y122.713 E53.4491
G0 F2880 X112.531 Y122.713
G1 F1200 X117.102 Y127.284 E53.69098
G0 F2880 X116.466 Y127.284
G1 F1200 X111.894 Y122.713 E53.93289
G0 F2880 X111.258 Y122.713
G1 F1200 X115.829 Y127.284 E54.17477
G0 F2880 X115.193 Y127.284
G1 F1200 X110.621 Y122.713 E54.41668
G0 F2880 X109.985 Y122.713
G1 F1200 X114.556 Y127.284 E54.65856
G0 F2880 X113.92 Y127.284
G1 F1200 X109.349 Y122.713 E54.90044
G0 F2880 X108.712 Y122.713
G1 F1200 X113.284 Y127.284 E55.14235
G0 F2880 X112.647 Y127.284
G1 F1200 X108.076 Y122.713 E55.38423
G0 F2880 X107.439 Y122.713
G1 F1200 X112.011 Y127.284 E55.62614
G0 F2880 X111.374 Y127.284
G1 F1200 X106.803 Y122.713 E55.86802
G0 F2880 X106.167 Y122.713
G1 F1200 X110.738 Y127.284 E56.1099
G0 F2880 X110.102 Y127.284
G1 F1200 X105.694 Y122.876 E56.34316
G0 F2880 X105.694 Y123.513
G1 F1200 X109.465 Y127.284 E56.54271
G0 F2880 X108.829 Y127.284
G1 F1200 X105.694 Y124.149 E56.7086
G0 F2880 X105.694 Y124.785
G1 F1200 X108.192 Y127.284 E56.84081
G0 F2880 X107.556 Y127.284
G1 F1200 X105.694 Y125.422 E56.93934
G0 F2880 X105.694 Y126.058
G1 F1200 X106.92 Y127.284 E57.00422
G0 F2880 X106.283 Y127.284
G1 F1200 X105.694 Y126.695 E57.03539
G0 F2880 X104.859 Y126.695
G1 F1500 E50.03539
;MESH:NONMESH
G0 F300 X104.859 Y126.695 Z0.4
G0 F2880 X105.281 Y127.699
G0 X145.775 Y127.926
;TIME_ELAPSED:88.628832
;LAYER:1
M106 S102
;TYPE:WALL-INNER
;MESH:PETGTempTower
G1 F1500 E57.03539
G1 F1350 X105.056 Y127.927 E58.559
G1 X105.056 Y122.073 E58.77804
G1 X145.774 Y122.073 E60.30161
G1 X145.775 Y127.926 E60.52062
G0 F5040 X146.225 Y128.376
G1 F1350 X104.606 Y128.377 E62.0779
G1 X104.606 Y121.623 E62.33062
G1 X146.224 Y121.623 E63.88787
G1 X146.225 Y128.376 E64.14055
G0 F5040 X146.675 Y128.826
G1 F1350 X104.156 Y128.827 E65.73151
G1 X104.156 Y121.173 E66.0179
G1 X146.674 Y121.173 E67.60883
G1 X146.675 Y128.826 E67.89519
G0 F5040 X147.125 Y129.276
G1 F1350 X103.706 Y129.277 E69.51982
G1 X103.706 Y120.723 E69.83989
G1 X147.124 Y120.723 E71.46449
G1 X147.125 Y129.276 E71.78453
G0 F5040 X147.575 Y129.726
;TYPE:WALL-OUTER
G1 F1350 X103.256 Y129.727 E73.44284
G1 X103.256 Y120.273 E73.79659
G1 X147.574 Y120.273 E75.45486
G1 X147.575 Y129.726 E75.80857
G0 F5040 X147.28 Y129.431
G0 X145.64 Y127.486
G0 X145.335 Y127.486
;TYPE:SKIN
G1 F1350 X105.496 Y127.487 E77.29925
G1 X105.496 Y122.513 E77.48537
G1 X145.334 Y122.513 E78.97601
G1 X145.335 Y127.486 E79.16209
G0 F5040 X145.154 Y127.223
G1 F1350 X145.071 Y127.306 E79.16648
G0 F5040 X144.435 Y127.306
G1 F1350 X145.154 Y126.586 E79.20456
G0 F5040 X145.154 Y125.95
G1 F1350 X143.798 Y127.306 E79.27631
G0 F5040 X143.162 Y127.306
G1 F1350 X145.154 Y125.314 E79.38172
G0 F5040 X145.153 Y124.678
G1 F1350 X142.525 Y127.306 E79.52078
G0 F5040 X141.889 Y127.306
G1 F1350 X145.153 Y124.042 E79.6935
G0 F5040 X145.153 Y123.405
G1 F1350 X141.253 Y127.306 E79.89991
G0 F5040 X140.616 Y127.306
G1 F1350 X145.153 Y122.769 E80.13999
G0 F5040 X144.594 Y122.692
G1 F1350 X139.98 Y127.306 E80.38414
G0 F5040 X139.343 Y127.306
G1 F1350 X143.957 Y122.692 E80.6283
G0 F5040 X143.321 Y122.692
G1 F1350 X138.707 Y127.306 E80.87246
G0 F5040 X138.071 Y127.306
G1 F1350 X142.684 Y122.692 E81.11659
G0 F5040 X142.048 Y122.692
G1 F1350 X137.434 Y127.306 E81.36075
G0 F5040 X136.798 Y127.306
G1 F1350 X141.412 Y122.692 E81.6049
G0 F5040 X140.775 Y122.692
G1 F1350 X136.161 Y127.306 E81.84906
G0 F5040 X135.525 Y127.306
G1 F1350 X140.139 Y122.692 E82.09322
G0 F5040 X139.502 Y122.692
G1 F1350 X134.889 Y127.306 E82.33735
G0 F5040 X134.252 Y127.306
G1 F1350 X138.866 Y122.692 E82.5815
G0 F5040 X138.23 Y122.692
G1 F1350 X133.616 Y127.306 E82.82566
G0 F5040 X132.979 Y127.306
G1 F1350 X137.593 Y122.692 E83.06982
G0 F5040 X136.957 Y122.692
G1 F1350 X132.343 Y127.306 E83.31398
G0 F5040 X131.707 Y127.306
G1 F1350 X136.32 Y122.692 E83.55811
G0 F5040 X135.684 Y122.692
G1 F1350 X131.07 Y127.306 E83.80226
G0 F5040 X130.434 Y127.306
G1 F1350 X135.048 Y122.692 E84.04642
G0 F5040 X134.411 Y122.692
